!!! OTL: Literature33
!!! Chapter: 5
!!! Section: I
!!! Page: 351
!!! Mode: 
!!! Encoder: DJB
**kern
*staff1
*I"Piano
=1-
*clefC3
*k[b-e-]
*B-:
*met(c|)
*M2/2
4r
4r
4r
4F/
=2
4B-/
2d\
4d\
=3
8c\L
8c\J
4B-/
2G/
=4
4B-/
2c\
8d\L
8c\J
=5
8B-/L
8B-/J
4G/
2F/
=6
4B-/
2d\
4f\
=7
8f\L
8f\J
4g\
4.B-/
8c\
=8
4d\
4d\
8c\
4c\
8c\
=9
2.B-/
4r
==
*-
